!! 00045] TT[TB
!! Zh. Ch. 1-1578, 560806), Peking: 18354)
!!!OTL: Ding ding dang
!!!ARE: Asia, China,ÿZhejiang, Wenzhou
!! Ethnic Group: Han
!! MM,
!!!SCT: C1226
!!!YEM: Copyright 1995, estate of Helmut Schaffrath.
**kern
*ICvox
*Ivox
*M2/4
*k[f#c#]
*D:
{8b
8ee
4ee
=1
8dd
8b
4b}
=2
{8b
8ee
4ee
=3
8dd
8b
4b}
=4
{8b
8ee
8dd
8ee
=5
8dd
8b
8b
8a
=6
8a
16a
16a
4b}
=7
{8dd
16b
16dd
4b
=8
8b
8b
8b
8b
=9
8b
8b
4ee
=10
8dd
8b
4b}
=11
{8b
8ee
8dd
8ee
=12
8dd
8b
8a
8a
=13
4b
8a
8f#}
==
!!!AGN: Xiaodiao, Erge
!! Noten kopiert.
!!    Grundtonangabe: 6=B. T.9,2/10,1 ist 6_6_  jeweils eingeklammert in der
!!    Art der Vor- bzw. Zwischenspiele, aber trotzdem textunterlegt.
!!    Variante zu C1225!!!
!!!ONB: ESAC (Essen Associative Code) Database: CHINA
!!!AMT: simple duple
!!!AIN: vox
!!!EED: Helmut Schaffrath
!!!EEV: 1.0
*-
